alura/assets/api/cursos/onboarding-banrisul-gestores.svg

<svg width="56" height="56" viewBox="0 0 56 56" fill="none" xmlns="http://www.w3.org/2000/svg">
<circle cx="28" cy="28" r="28" fill="#000050"/>
<path d="M39.7789 17.1475L35.2502 9.25965C34.8003 8.47987 33.9706 8 33.0708 8H24.0133C23.1136 8 22.2838 8.47987 21.8339 9.25965L17.3052 17.1475C16.8553 17.9272 16.8553 18.887 17.3052 19.6668L21.8339 27.5546C22.2838 28.3344 23.1136 28.8142 24.0133 28.8142H27.3024L28.5421 26.6548H24.0133C23.8834 26.6548 23.7634 26.5848 23.7034 26.4749L19.1747 18.5871C19.1147 18.4771 19.1147 18.3371 19.1747 18.2272L23.7034 10.3394C23.7634 10.2294 23.8834 10.1594 24.0133 10.1594H33.0708C33.2008 10.1594 33.3207 10.2294 33.3807 10.3394L37.9095 18.2272C37.9694 18.3371 37.9694 18.4771 37.9095 18.5871L35.2802 23.1758H37.7695L39.7789 19.6768C40.2288 18.897 40.2288 17.9372 39.7789 17.1575V17.1475Z" fill="#0095FF"/>
<path d="M31.8012 32.3233L29.7917 28.8242H27.3024L29.9317 33.4129C29.9917 33.5229 29.9917 33.6629 29.9317 33.7729L25.4029 41.6607C25.343 41.7706 25.223 41.8406 25.093 41.8406H16.0455C15.9156 41.8406 15.7956 41.7706 15.7356 41.6607L11.2069 33.7729C11.1469 33.6629 11.1469 33.5229 11.2069 33.4129L15.7356 25.5251C15.7956 25.4152 15.9156 25.3452 16.0455 25.3452H20.5743L19.3346 23.1858H16.0455C15.1458 23.1858 14.316 23.6657 13.8661 24.4454L9.33741 32.3332C8.88753 33.113 8.88753 34.0728 9.33741 34.8526L13.8661 42.7404C14.316 43.5201 15.1458 44 16.0455 44H25.103C26.0028 44 26.8325 43.5201 27.2824 42.7404L31.8112 34.8526C32.261 34.0728 32.261 33.113 31.8112 32.3332L31.8012 32.3233Z" fill="#A070FE"/>
<path d="M47.7567 32.3232L43.2279 24.4354C42.7781 23.6556 41.9483 23.1758 41.0485 23.1758H31.9911C31.0913 23.1758 30.2615 23.6556 29.8117 24.4354L27.2924 28.8142H29.7817L31.6811 25.5151C31.7411 25.4052 31.8611 25.3352 31.9911 25.3352H41.0485C41.1785 25.3352 41.2985 25.4052 41.3585 25.5151L45.8872 33.4029C45.9472 33.5129 45.9472 33.6529 45.8872 33.7628L41.3585 41.6506C41.2985 41.7606 41.1785 41.8306 41.0485 41.8306H31.9911C31.8611 41.8306 31.7411 41.7606 31.6811 41.6506L29.7817 38.3616L28.542 40.521L29.8217 42.7304C30.2715 43.5101 31.1013 43.99 32.0011 43.99H41.0585C41.9583 43.99 42.7881 43.5101 43.2379 42.7304L47.7667 34.8425C48.2165 34.0628 48.2165 33.103 47.7667 32.3232H47.7567Z" fill="#00CFCB"/>
</svg>

<svg xmlns="http://www.w3.org/2000/svg" fill="none" viewBox="0 0 56 56"><circle cx="28" cy="28" r="28" fill="#000050"/><path fill="#0095FF" d="M39.779 17.148L35.25 9.26A2.515 2.515 0 0033.07 8h-9.057c-.9 0-1.73.48-2.18 1.26l-4.528 7.888a2.52 2.52 0 000 2.519l4.529 7.888c.45.78 1.28 1.26 2.18 1.26h3.288l1.24-2.16h-4.529c-.13 0-.25-.07-.31-.18l-4.528-7.888a.382.382 0 010-.36l4.528-7.888c.06-.11.18-.18.31-.18h9.058c.13 0 .25.07.31.18l4.529 7.888c.06.11.06.25 0 .36l-2.63 4.589h2.49l2.009-3.5c.45-.779.45-1.739 0-2.518v-.01z"/><path fill="#A070FE" d="M31.801 32.323l-2.01-3.499h-2.489l2.63 4.589c.06.11.06.25 0 .36l-4.53 7.888a.35.35 0 01-.309.18h-9.047c-.13 0-.25-.07-.31-.18l-4.53-7.888a.383.383 0 010-.36l4.53-7.888c.06-.11.18-.18.31-.18h4.528l-1.24-2.16h-3.288c-.9 0-1.73.48-2.18 1.26l-4.529 7.888a2.52 2.52 0 000 2.52l4.53 7.887A2.512 2.512 0 0016.045 44h9.058c.9 0 1.73-.48 2.18-1.26l4.528-7.887c.45-.78.45-1.74 0-2.52l-.01-.01z"/><path fill="#00CFCB" d="M47.757 32.323l-4.53-7.888a2.515 2.515 0 00-2.178-1.26H31.99c-.9 0-1.73.48-2.18 1.26l-2.519 4.38h2.49l1.9-3.3c.06-.11.18-.18.31-.18h9.056c.13 0 .25.07.31.18l4.53 7.888c.06.11.06.25 0 .36l-4.53 7.888c-.06.11-.18.18-.31.18H31.99c-.13 0-.25-.07-.31-.18l-1.9-3.29-1.239 2.16 1.28 2.21c.45.78 1.28 1.259 2.18 1.259h9.056c.9 0 1.73-.48 2.18-1.26l4.529-7.887c.45-.78.45-1.74 0-2.52h-.01z"/></svg>
